X:1
T: The Braes of Mayem
C:Alexander Walker
R:Jig
Q:180
K:Am
M:6/8
L:1/16
A2|c2B2A2 B2e2A2|G2E2D2 C2B,2A,2|c2B2A2 B2A2G2|d2B2G2 A4AB|c2B2A2 B2e2A2|G2E2D2 C2B,2A,2|e2d2c2 d2c2B2|c2A2A2 A4A2|
c2B2A2 B2e2A2|G2E2D2 C2B,2A,2|c2B2A2 B2A2G2|d2B2G2 A4AB|c2B2A2 B2e2A2|G2E2D2 C2B,2A,2|e2d2c2 d2c2B2|c2A2A2 A4g2|
a2b2a2 g2e2c2|d2e2c2 d2B2G2|a2b2a2 g2e2c2|d2B2G2 A4g2|a2b2a2 g2e2c2|d2e2c2 d2B2G2|e2d2c2 d2c2B2|c2A2A2 A4g2|
a2b2a2 g2e2c2|d2e2c2 d2B2G2|a2b2a2 g2e2c2|d2e2g2 a4b2|a2g2f2 e2d2c2|d2e2c2 B2A2E2|e2g2e2 d2B2G2|B2A2A2 A4||
